svg/emoji_u1f4f6.svg

<svg enable-background="new 0 0 128 128" viewBox="0 0 128 128" xmlns="http://www.w3.org/2000/svg"><linearGradient id="a" x1="64" x2="64" y1="4.25" y2="123.91" gradientUnits="userSpaceOnUse"><stop stop-color="#FFAB40" offset="0"/><stop stop-color="#FF6D00" offset="1"/></linearGradient><path d="m116 124h-104c-4.42 0-8-3.58-8-8v-104c0-4.42 3.58-8 8-8h104c4.42 0 8 3.58 8 8v104c0 4.42-3.58 8-8 8z" fill="url(#a)"/><g opacity=".2"><path d="m116 7c2.76 0 5 2.24 5 5v104c0 2.76-2.24 5-5 5h-104c-2.76 0-5-2.24-5-5v-104c0-2.76 2.24-5 5-5h104m0-3h-104c-4.42 0-8 3.58-8 8v104c0 4.42 3.58 8 8 8h104c4.42 0 8-3.58 8-8v-104c0-4.42-3.58-8-8-8z" fill="#424242"/></g><g fill="#424242" opacity=".2"><path d="m34 72c1.1 0 2 0.9 2 2v28c0 1.1-0.9 2-2 2h-8c-1.1 0-2-0.9-2-2v-28c0-1.1 0.9-2 2-2h8m0-3h-8c-2.76 0-5 2.24-5 5v28c0 2.76 2.24 5 5 5h8c2.76 0 5-2.24 5-5v-28c0-2.76-2.24-5-5-5z"/><path d="m56.67 56c1.1 0 2 0.9 2 2v44c0 1.1-0.9 2-2 2h-8c-1.1 0-2-0.9-2-2v-44c0-1.1 0.9-2 2-2h8m0-3h-8c-2.76 0-5 2.24-5 5v44c0 2.76 2.24 5 5 5h8c2.76 0 5-2.24 5-5v-44c0-2.76-2.25-5-5-5z"/><path d="m79.33 40c1.1 0 2 0.9 2 2v60c0 1.1-0.9 2-2 2h-8c-1.1 0-2-0.9-2-2v-60c0-1.1 0.9-2 2-2h8m0-3h-8c-2.76 0-5 2.24-5 5v60c0 2.76 2.24 5 5 5h8c2.76 0 5-2.24 5-5v-60c0-2.76-2.24-5-5-5z"/><path d="m102 24c1.1 0 2 0.9 2 2v76c0 1.1-0.9 2-2 2h-8c-1.1 0-2-0.9-2-2v-76c0-1.1 0.9-2 2-2h8m0-3h-8c-2.76 0-5 2.24-5 5v76c0 2.76 2.24 5 5 5h8c2.76 0 5-2.24 5-5v-76c0-2.76-2.24-5-5-5z"/></g><g fill="#FAFAFA"><path d="m34 104h-8c-1.1 0-2-0.9-2-2v-28c0-1.1 0.9-2 2-2h8c1.1 0 2 0.9 2 2v28c0 1.1-0.9 2-2 2z"/><path d="m56.67 104h-8c-1.1 0-2-0.9-2-2v-44c0-1.1 0.9-2 2-2h8c1.1 0 2 0.9 2 2v44c0 1.1-0.9 2-2 2z"/><path d="m79.33 104h-8c-1.1 0-2-0.9-2-2v-60c0-1.1 0.9-2 2-2h8c1.1 0 2 0.9 2 2v60c0 1.1-0.89 2-2 2z"/><path d="m102 104h-8c-1.1 0-2-0.9-2-2v-76c0-1.1 0.9-2 2-2h8c1.1 0 2 0.9 2 2v76c0 1.1-0.9 2-2 2z"/></g></svg>

<svg width="128" height="128" style="enable-background:new 0 0 128 128;" xmlns="http://www.w3.org/2000/svg" xmlns:xlink="http://www.w3.org/1999/xlink">
  <g>
    <linearGradient id="SVGID_1_" gradientUnits="userSpaceOnUse" x1="64" x2="64" y1="4.25" y2="123.9133">
      <stop offset="0" style="stop-color:#FFAB40"/>
      <stop offset="1" style="stop-color:#FF6D00"/>
    </linearGradient>
    <path d="M116,124H12c-4.42,0-8-3.58-8-8V12c0-4.42,3.58-8,8-8h104c4.42,0,8,3.58,8,8v104 C124,120.42,120.42,124,116,124z" style="fill:url(#SVGID_1_);"/>
    <g style="opacity:0.2;">
      <path d="M116,7c2.76,0,5,2.24,5,5v104c0,2.76-2.24,5-5,5H12c-2.76,0-5-2.24-5-5V12c0-2.76,2.24-5,5-5H116 M116,4H12c-4.42,0-8,3.58-8,8v104c0,4.42,3.58,8,8,8h104c4.42,0,8-3.58,8-8V12C124,7.58,120.42,4,116,4L116,4z" style="fill:#424242;"/>
    </g>
    <g style="opacity:0.2;">
      <path d="M34,72c1.1,0,2,0.9,2,2v28c0,1.1-0.9,2-2,2h-8c-1.1,0-2-0.9-2-2V74c0-1.1,0.9-2,2-2H34 M34,69h-8 c-2.76,0-5,2.24-5,5v28c0,2.76,2.24,5,5,5h8c2.76,0,5-2.24,5-5V74C39,71.24,36.76,69,34,69L34,69z" style="fill:#424242;"/>
      <path d="M56.67,56c1.1,0,2,0.9,2,2v44c0,1.1-0.9,2-2,2h-8c-1.1,0-2-0.9-2-2V58c0-1.1,0.9-2,2-2H56.67 M56.67,53h-8c-2.76,0-5,2.24-5,5v44c0,2.76,2.24,5,5,5h8c2.76,0,5-2.24,5-5V58C61.67,55.24,59.42,53,56.67,53L56.67,53z" style="fill:#424242;"/>
      <path d="M79.33,40c1.1,0,2,0.9,2,2v60c0,1.1-0.9,2-2,2h-8c-1.1,0-2-0.9-2-2V42c0-1.1,0.9-2,2-2H79.33 M79.33,37h-8c-2.76,0-5,2.24-5,5v60c0,2.76,2.24,5,5,5h8c2.76,0,5-2.24,5-5V42C84.33,39.24,82.09,37,79.33,37L79.33,37z" style="fill:#424242;"/>
      <path d="M102,24c1.1,0,2,0.9,2,2v76c0,1.1-0.9,2-2,2h-8c-1.1,0-2-0.9-2-2V26c0-1.1,0.9-2,2-2H102 M102,21 h-8c-2.76,0-5,2.24-5,5v76c0,2.76,2.24,5,5,5h8c2.76,0,5-2.24,5-5V26C107,23.24,104.76,21,102,21L102,21z" style="fill:#424242;"/>
    </g>
    <g>
      <path d="M34,104h-8c-1.1,0-2-0.9-2-2V74c0-1.1,0.9-2,2-2h8c1.1,0,2,0.9,2,2v28C36,103.1,35.1,104,34,104z" style="fill:#FAFAFA;"/>
      <path d="M56.67,104h-8c-1.1,0-2-0.9-2-2V58c0-1.1,0.9-2,2-2h8c1.1,0,2,0.9,2,2v44 C58.67,103.1,57.77,104,56.67,104z" style="fill:#FAFAFA;"/>
      <path d="M79.33,104h-8c-1.1,0-2-0.9-2-2V42c0-1.1,0.9-2,2-2h8c1.1,0,2,0.9,2,2v60 C81.33,103.1,80.44,104,79.33,104z" style="fill:#FAFAFA;"/>
      <path d="M102,104h-8c-1.1,0-2-0.9-2-2V26c0-1.1,0.9-2,2-2h8c1.1,0,2,0.9,2,2v76 C104,103.1,103.1,104,102,104z" style="fill:#FAFAFA;"/>
    </g>
  </g>
</svg>
